X: 21594
T: Killarney Boys Of Pleasure, The
R: reel
M: 4/4
K: Edorian
|:E2FE E2 (3FGA|B2AF DEFA|~B3d efed|BdAF FE (3DEF|
DEFE E2 (3FGA|B2AF DEFA|~B3d efed|1 B2AD FE (3DEF:|2 B2AD FEEA||
|:BeeA BeeB|dBAF DEFA|~f3e fgfe|dBAF DEFA|
BeeA BeeB|dBAF DEFA|~f3e dffe|1 dBAF FEE2:|2 dBAF FEFD||

